X:44
T:She'll be coming round the mountain (musicaviva)
C:anon.
O:USA
Z:Frank Nordberg
M:2/4
L:1/8
Q:1/4=144
F:http://abc.musicaviva.com
K:G
DE|"G"G-G G-G|"G"ED B,D|"G"G4|"G"z2 GA|
"G"B-B B-B|"G"dB AG|"D7"A4|"D7"z2 dc|
"G"B-B B-B|"G7"AG GG|"C"E-E E-E|"C"AG FE|
"G"D-D D-D|"D7"BA FD|"G"G4|"G"z2|]
